X:1
T:Sweden
T:Sweden
T:C418
T:C418/Daniel Davidson
C:C418/Daniel Davidson
%%score { 1 | 2 }
L:1/8
Q:1/4=80
M:4/4
K:C
V:1 treble nm="Piano" snm="Pno."
V:2 bass 
V:1
"^\n\n\n" [EGB]8 | [Ad^f]8 | [^FA^c]8 | [A^ce]8 | [EGB]8 | [Ad^f]8 | [^FA^c]8 | [A^ce]8 | [EGB]8 | %9
 [Ad^f]8 | [^FA^c]8 | [A^ce]8 | [EGB]6 AB | [Ad^f]6 DE | [^FA^c]6 ^FA | [A^ce]8 | [EGB]2 d2 B2 A2 | %17
 [^FAd^f]6 DE | [^FA^c]6 ^FA | [A^ce]8 | [EGB]6 AB | [Ad^f]6 ^fe | [^FA^c]6 d^c | [A^ce]8 | %24
[Q:1/4=63]"^Larghetto" [EGB]8 | [Ad^f]8 | [^FA^c]8 | [A^ce]8 | %28
[Q:1/4=250]"^Prestissimo" z2 D2 z2 z2 | z8 |] %30
V:2
 E,4 ^F,4 | A,4 B,4 | A,4 G,4 | D,8 | E,4 ^F,4 | A,4 B,4 | A,4 G,4 | D,8 | E,4 ^F,4 | A,4 B,4 | %10
 A,4 G,4 | D,8 | E,4 ^F,4 | A,4 B,4 | A,4 G,4 | D,8 | E,4 ^F,4 | A,4 B,4 | A,4 G,4 | D,8 | %20
 E,4 ^F,4 | A,4 B,4 | A,4 G,4 | D,8 | E,4 ^F,4 | A,4 B,4 | A,4 G,4 | D,8 | D,D, z2 A,2 z _A,- | %29
 A, G,2 F,2 D,F,G, |] %30

